!!!COM: Schubert, Franz
!!!CNT: Deutscher
!!!TXO: Deutsch
!!!OTL: "Die boese Farbe"
!!!OPR: Die schoene Muellerin
!!!LYR: Mu2ller, Wilhelm
!!!OPS: Opus 25
!!!ONM: No. 17
!!!ODT: 1823/
!!NB: Vocal melody only encoded.
**kern	**silbe
*clefG2	*
*k[f#c#g#d#a#]	*
*M2/4	*
*MM[geschwind]	*
=4	=4
4r	.
8.r	.
{16f#	{Ich
=5	=5
8.b	mo2ch-
16f#	-te
16d#	zieh'n
16f#	|
16b	in
16dd#	die
=6	=6
8.ff#	Welt
16ee	hin-
8.cc#	-aus,
16f#	hin-
=7	=7
8b	-aus
16cc#	in
16cc#	die
16dd#	wei-
16ff#	|
16ee	-te
16dd#	|
=8	=8
4cc#}	Welt,}
8r	.
{8cc#	{wenn's
=9	=9
8.dd#	nur
16dd#	so
8.dd#	gru2n,
16cc#	so
=10	=10
8.cc#	gru2n
16b	nicht
8.b	wa2r'
16b	da
=11	=11
8cc#	drau-
16ddn	-ssen
16ddn	in
8.cc#	Wald
16e#	und
=12	=12
4f#}	Feld}
8.r	.
{16f#	{Ich
=13	=13
8b	mo2ch-
16f#	-te
16f#	die
16d#	gru2-
16f#	|
16b	-nen
16dd#	|
=14	=14
8.ff#	Bla2t-
16ee	-ter
4cc#	all'
=15	=15
8b	pflu2-
16cc#	-cken
16cc#	von
16dd#	je-
16ff#	|
16ee	-dem
16dd#	|
=16	=16
4cc#}	Zweig,}
8r	.
{8cc#	{Ich
=17	=17
8ee	mo2ch-
16cc#	-te
16cc#	die
16b	gru2-
16a#	|
16g#	-nen
16f#	|
=18	=18
8.ddn	Gra2-
16cc#	-ser
4b	all'
=19	=19
8ddn	wei-
16b	-nen
16b	ganz
8cc#	to-
8f#	-dten-
=20	=20
(8ff#	-bleich,
4.ggn)}	|}
=21	=21
{8ff#	{wei-
16ee	-nen
16ddn	ganz
16cc#	to-
16ee	|
16dd#	-dten-
16cc#	|
=22	=22
4b}	-bleich}
8.r	.
{16b	{Ach
=23	=23
8.b	Gru2n,
16b	du
8.ee	bo2-
16b	-se
=24	=24
8.b	Far-
16an	-be
4gn	du,
=25	=25
8.r	.
16an	was
8.ddn	siehst
16an	mich
=26	=26
8.an	im-
16ee	-mer
8.ff#}	an}
{16ff#	{so
=27	=27
(16ff#	stolz,
16a#)	|
16r	.
16ff#	so
(16ff#	keck,
16b)	|
16r	.
16b	so
=28	=28
8ee	scha-
8ddn	-den-
8cc#	-froh,
16r	.
16cc#	mich
=29	=29
8.cc#	ar-
16b	-men,
8.a#	ar-
16cc#	-men
=30	=30
8.cc#	wei-
16b	-ssen
8a#}	Mann?}
8r	.
=31	=31
4r	.
8.r	.
{16f#	{Ich
=32	=32
8.b	mo2ch-
16f#	-te
16d#	lie-
16f#	|
16b	-gen
16dd#	vor
=33	=33
8.ff#	ih-
16ee	-rer
8.cc#	Thu2r
16f#	in
=34	=34
8b	Sturm
8cc#	und
16dd#	Re-
16ff#	|
16ee	-gen
16dd#	und
=35	=35
4cc#}	Schnee.}
8.r	.
{16f#	{und
=36	=36
8b	sin-
16f#	-gen
16f#	ganz
16d#	lei-
16f#	|
16b	-se
16dd#	bei
=37	=37
8.ff#	Tag
16ee	und
8.cc#	Nacht
16cc#	das
=38	=38
8ddn	ei-
8b	-ne
8cc#	Wo2rt-
16f#	-chen
16f#	A-
=39	=39
(8ff#	-de,
4ggn)}	|}
{8ggn	{das
=40	=40
8ff#	ei-
16ee	-ne
16ddn	|
16cc#	Wo2rt-
16ee	|
16ddn	-chen
16cc#	A-
=41	=41
4b}	-de!}
4r	.
=42	=42
4r	.
8.r	.
{16f#	{Horch,
=43	=43
16.f#	wenn
32f#	im
16f#	Wald
16f#	ein
16.f#	Jagd-
32b	-horn
16f#	schallt,
16f#	da
=44	=44
16f#	klingt
16a#	|
16cc#	ihr
16ee	|
16.dd#	Fen-
32cc#	-ster-
16.b}	-lein,}
32r	.
=45	=45
4r	.
8.r	.
{16f#	{und
=46	=46
16.f#	schaut
32f#	sie
16f#	auch
16f#	nach
16.f#	mir
32b	nicht
16f#	aus,
16f#	darf
=47	=47
16.f#	ich
32a	doch
24cc#	schau-
24cc#	-en
24ff#	hin-
4ddn}	-ein.}
=48	=48
4r	.
8.r	.
{16f#	{O
=49	=49
16f#	bin-
16b	-de
16ddn	von
16ff#	der
16.ff#	Stirn
32ee#	dir
16ee#	ab
16ee#	das
=50	=50
16.een	gru2-
32ggn	ne,
16.ff#	gru2-
32een	-ne
8.ddn}	Band,}
{16ddn	{das
=51	=51
16.cc#	gru2-
32ddn	-ne,
16.cc#	gru2-
32b	-ne
8.a#}	Band!}
{16f#	{A-
=52	=52
8.b	-de,
16f#	a-
8.dd#	-de!
16b	und
=53	=53
8.ff#	rei-
16ee	-che
8.cc#	mir
16f#	zum
=54	=54
8b	Ab-
8cc#	-schied
16dd#	dei-
16ff#	|
16ee	-ne
16dd#	|
=55	=55
4cc#}	Hand!}
8.r	.
{16ff#	{A-
=56	=56
8.b	-de,
16f#	a-
8.dd#	-de!
16b	und
=57	=57
8.ff#	rei-
16ee	-che
8.cc#	mir
16cc#	zum
=58	=58
8ccn	Ab-
8b	-scheid
8cc#	dei-
8f#	-ne
=59	=59
(8ff#	Hand,
4ggn)}	|}
{8ggn	{zum
=60	=60
8ff#	Ab-
16ee	-schied
16ddn	|
16cc#	dei-
16ee	|
16ddn	-ne
16cc#	|
=61	=61
4b}	Hand!}
4r	.
*-	*-
